X:38
T:Burton O'Leary
R:jig
C:Paul S. Cranford
O:Cape Breton Island
S:http://www.cranfordpub.com
D:currently unrecorded
B:currently unpublished in book form
Z:psc
H:                                                        copyrights Cranford Publications, SOCAN
L:1/8
Q:300
M:6/8
K:D
e|fgf edc|d2 A F2 A|GFG EFG|A2 F D2 e|
fgf edc|dAG (F2 D)|GED A,FE|[1D3 D2:|[2D3 DFA||
|:B2 d dcB|Adf a2 f|gec Ace|dcB A2 A|
BdB dcB|Adf a2 f|gec Afe|[1d2 d DFA :|[2d3 d2|]
